X: 36719
T: Sheep In The Boat, The
R: jig
M: 6/8
K: Edorian
|:B,EF GFE|~F3 def|edB BAF|AFE FED|
B,EF ~G3|~F3 d3|edB BAF|AFE E3:|
B2 e ede|f2e d2f|edB BAF|AFE E3|
Bee e^de|f3 def|edB BAF|AFE E3|
~B3 eBe|~f3 Adf|edB BAF|AFE FED|
B,EF ~G3|~F3 d2f|edB BAF|AFE E3||

